icons/svg/24x24/time alt1/filled.svg

<svg width="24" height="24" fill="none" xmlns="http://www.w3.org/2000/svg">
  <path fill-rule="evenodd" clip-rule="evenodd" d="M14.707 16.707a.997.997 0 01-1.414 0l-3-3a.998.998 0 01-.279-.871l1-6a.993.993 0 011.15-.822c.545.09.913.606.822 1.15l-.915 5.493 2.636 2.636a.999.999 0 010 1.414zM12 2C6.477 2 2 6.478 2 12s4.477 10 10 10c5.522 0 10-4.478 10-10S17.522 2 12 2z" fill="#000"/>
</svg>

<svg xmlns="http://www.w3.org/2000/svg" width="24" height="24" viewBox="0 0 24 24">
  <path fill-rule="evenodd" d="M14.707,16.707 C14.512,16.902 14.256,17 14,17 C13.744,17 13.488,16.902 13.293,16.707 L10.293,13.707 C10.064,13.478 9.961,13.154 10.014,12.836 L11.014,6.836 C11.103,6.291 11.618,5.917 12.164,6.014 C12.709,6.104 13.077,6.62 12.986,7.164 L12.071,12.657 L14.707,15.293 C15.098,15.684 15.098,16.316 14.707,16.707 M12,2 C6.477,2 2,6.478 2,12 C2,17.522 6.477,22 12,22 C17.522,22 22,17.522 22,12 C22,6.478 17.522,2 12,2"/>
</svg>
